Numix/24x24/status/dropboxstatus-x.svg

<?xml version="1.0" encoding="UTF-8" standalone="no"?>
<svg
   xmlns:dc="http://purl.org/dc/elements/1.1/"
   xmlns:cc="http://creativecommons.org/ns#"
   xmlns:rdf="http://www.w3.org/1999/02/22-rdf-syntax-ns#"
   xmlns:svg="http://www.w3.org/2000/svg"
   xmlns="http://www.w3.org/2000/svg"
   xmlns:sodipodi="http://sodipodi.sourceforge.net/DTD/sodipodi-0.dtd"
   xmlns:inkscape="http://www.inkscape.org/namespaces/inkscape"
   width="24"
   height="24"
   viewBox="0 0 24 24"
   id="svg3047"
   version="1.1"
   inkscape:version="0.48.5 r10040"
   sodipodi:docname="dropboxstatus-x.svg">
  <metadata
     id="metadata3059">
    <rdf:RDF>
      <cc:Work
         rdf:about="">
        <dc:format>image/svg+xml</dc:format>
        <dc:type
           rdf:resource="http://purl.org/dc/dcmitype/StillImage" />
      </cc:Work>
    </rdf:RDF>
  </metadata>
  <defs
     id="defs3057" />
  <sodipodi:namedview
     pagecolor="#ffffff"
     bordercolor="#666666"
     borderopacity="1"
     objecttolerance="10"
     gridtolerance="10"
     guidetolerance="10"
     inkscape:pageopacity="0"
     inkscape:pageshadow="2"
     inkscape:window-width="1280"
     inkscape:window-height="998"
     id="namedview3055"
     showgrid="false"
     inkscape:zoom="19.666667"
     inkscape:cx="11.855154"
     inkscape:cy="10.212341"
     inkscape:window-x="0"
     inkscape:window-y="0"
     inkscape:window-maximized="1"
     inkscape:current-layer="svg3047" />
  <path
     style="fill:#ef555c;fill-opacity:1"
     inkscape:connector-curvature="0"
     id="path3053"
     d="m 7.089844,3.816406 -4.90625,3.820313 4.90625,3.273437 -4.90625,4.363282 L 12,21.816406 21.816406,15.273438 16.910156,10.910156 21.816406,7.636719 16.910156,3.816406 12,7.636719 z M 12,8.726562 c 0.605469,0 1.089844,0.488282 1.089844,1.089844 l 0,5.457032 c 0,0.605468 -0.484375,1.089843 -1.089844,1.089843 -0.605469,0 -1.089844,-0.484375 -1.089844,-1.089843 l 0,-5.457032 c 0,-0.601562 0.484375,-1.089844 1.089844,-1.089844 z m -0.273438,8.726563 0.546876,0 c 0.453124,0 0.816406,0.367187 0.816406,0.820313 l 0,0.542968 c 0,0.457032 -0.363282,0.820313 -0.816406,0.820313 l -0.546876,0 c -0.453124,0 -0.816406,-0.363281 -0.816406,-0.820313 l 0,-0.542968 c 0,-0.453126 0.363282,-0.820313 0.816406,-0.820313 z" />
</svg>

<svg xmlns="http://www.w3.org/2000/svg" width="24" height="24" viewBox="0 0 24 24">
 <g>
  <path d="M 7.089844 4.910156 L 2.183594 8.726562 L 7.089844 12 L 2.183594 16.363281 L 12 22.910156 L 21.816406 16.363281 L 16.910156 12 L 21.816406 8.726562 L 16.910156 4.910156 L 12 8.726562 Z M 12 9.816406 C 12.605469 9.816406 13.089844 10.304688 13.089844 10.910156 L 13.089844 16.363281 C 13.089844 16.96875 12.605469 17.453125 12 17.453125 C 11.394531 17.453125 10.910156 16.96875 10.910156 16.363281 L 10.910156 10.910156 C 10.910156 10.304688 11.394531 9.816406 12 9.816406 Z M 11.726562 18.546875 L 12.273438 18.546875 C 12.726562 18.546875 13.089844 18.910156 13.089844 19.363281 L 13.089844 19.910156 C 13.089844 20.363281 12.726562 20.726562 12.273438 20.726562 L 11.726562 20.726562 C 11.273438 20.726562 10.910156 20.363281 10.910156 19.910156 L 10.910156 19.363281 C 10.910156 18.910156 11.273438 18.546875 11.726562 18.546875 Z " fill-opacity="0.302"/>
  <path d="M 7.089844 3.816406 L 2.183594 7.636719 L 7.089844 10.910156 L 2.183594 15.273438 L 12 21.816406 L 21.816406 15.273438 L 16.910156 10.910156 L 21.816406 7.636719 L 16.910156 3.816406 L 12 7.636719 Z M 12 8.726562 C 12.605469 8.726562 13.089844 9.214844 13.089844 9.816406 L 13.089844 15.273438 C 13.089844 15.878906 12.605469 16.363281 12 16.363281 C 11.394531 16.363281 10.910156 15.878906 10.910156 15.273438 L 10.910156 9.816406 C 10.910156 9.214844 11.394531 8.726562 12 8.726562 Z M 11.726562 17.453125 L 12.273438 17.453125 C 12.726562 17.453125 13.089844 17.820312 13.089844 18.273438 L 13.089844 18.816406 C 13.089844 19.273438 12.726562 19.636719 12.273438 19.636719 L 11.726562 19.636719 C 11.273438 19.636719 10.910156 19.273438 10.910156 18.816406 L 10.910156 18.273438 C 10.910156 17.820312 11.273438 17.453125 11.726562 17.453125 Z " fill="#ee545b"/>
 </g>
</svg>
